static/assets/img/icons/theme/home/сommode-2.svg

<svg height="24" viewBox="0 0 24 24" width="24" xmlns="http://www.w3.org/2000/svg"><g fill="none" fill-rule="evenodd"><path d="m0 0h24v24h-24z" opacity="0"/><g fill="#000"><path d="m5.5 2h13c.8284271 0 1.5.67157288 1.5 1.5v3c0 .82842712-.6715729 1.5-1.5 1.5h-13c-.82842712 0-1.5-.67157288-1.5-1.5v-3c0-.82842712.67157288-1.5 1.5-1.5zm5.5 2c-.5522847 0-1 .44771525-1 1s.4477153 1 1 1h2c.5522847 0 1-.44771525 1-1s-.4477153-1-1-1z" opacity=".3"/><path d="m5.5 9h13c.8284271 0 1.5.67157288 1.5 1.5v3c0 .8284271-.6715729 1.5-1.5 1.5h-13c-.82842712 0-1.5-.6715729-1.5-1.5v-3c0-.82842712.67157288-1.5 1.5-1.5zm5.5 2c-.5522847 0-1 .4477153-1 1s.4477153 1 1 1h2c.5522847 0 1-.4477153 1-1s-.4477153-1-1-1zm-5.5 5h13c.8284271 0 1.5.6715729 1.5 1.5v3c0 .8284271-.6715729 1.5-1.5 1.5h-13c-.82842712 0-1.5-.6715729-1.5-1.5v-3c0-.8284271.67157288-1.5 1.5-1.5zm5.5 2c-.5522847 0-1 .4477153-1 1s.4477153 1 1 1h2c.5522847 0 1-.4477153 1-1s-.4477153-1-1-1z"/></g></g></svg>

<svg width="24px" height="24px" viewBox="0 0 24 24" version="1.1" xmlns="http://www.w3.org/2000/svg" xmlns:xlink="http://www.w3.org/1999/xlink">
    <title>Icon For Сommode#2</title>
    <g stroke="none" stroke-width="1" fill="none" fill-rule="evenodd">
        <rect opacity="0" x="0" y="0" width="24" height="24"></rect>
        <path d="M5.5,2 L18.5,2 C19.3284271,2 20,2.67157288 20,3.5 L20,6.5 C20,7.32842712 19.3284271,8 18.5,8 L5.5,8 C4.67157288,8 4,7.32842712 4,6.5 L4,3.5 C4,2.67157288 4.67157288,2 5.5,2 Z M11,4 C10.4477153,4 10,4.44771525 10,5 C10,5.55228475 10.4477153,6 11,6 L13,6 C13.5522847,6 14,5.55228475 14,5 C14,4.44771525 13.5522847,4 13,4 L11,4 Z" fill="#000000" opacity="0.3"></path>
        <path d="M5.5,9 L18.5,9 C19.3284271,9 20,9.67157288 20,10.5 L20,13.5 C20,14.3284271 19.3284271,15 18.5,15 L5.5,15 C4.67157288,15 4,14.3284271 4,13.5 L4,10.5 C4,9.67157288 4.67157288,9 5.5,9 Z M11,11 C10.4477153,11 10,11.4477153 10,12 C10,12.5522847 10.4477153,13 11,13 L13,13 C13.5522847,13 14,12.5522847 14,12 C14,11.4477153 13.5522847,11 13,11 L11,11 Z M5.5,16 L18.5,16 C19.3284271,16 20,16.6715729 20,17.5 L20,20.5 C20,21.3284271 19.3284271,22 18.5,22 L5.5,22 C4.67157288,22 4,21.3284271 4,20.5 L4,17.5 C4,16.6715729 4.67157288,16 5.5,16 Z M11,18 C10.4477153,18 10,18.4477153 10,19 C10,19.5522847 10.4477153,20 11,20 L13,20 C13.5522847,20 14,19.5522847 14,19 C14,18.4477153 13.5522847,18 13,18 L11,18 Z" fill="#000000"></path>
    </g>
</svg>
